X: 603
T: Dûr Etme Yanından Asla
C: Osep Ağa
O: Turkey
F: http://compmusic.upf.edu/node/140
N: acemkurdi--agirsemai--agir_aksaksemai--dur_etme--osep_aga
N: makam= acemkurdi
N: form= agirsemai
N: usul= agir_aksaksemai = 10/4
M: 10/4
L: 1/16
K: C _B   
Q: 1/4=93
%%MIDI tuningsystem comma53
f8 a2g2 g2f2 f2e2 e2d2 {f}e2d2 c2d2 e2f2 g2a2  | \
w:  Ah  Dûr_ *  et *  *  *  me  *  *  *  *  ya  | 
f2e4d2 d4 e2d2 {e}d2c2 c2d2 c2=B2 c2BA A4 z4  | 
w:  *  *  *  nın dan  *  *  *  *  as *  *  *  la   | 
G2A6 G4 A6c2 =B2A2 G4 G2A2 B2c2 d4  | \
w:  ah  *  ben *  de ni  *  ey   | 
z8 A4 B8 A2G2 {A}G2A2 A8 z4  | 
w:  ka şı  ke *  *  *  *  man    | 
f8 a2g2 g2f2 f2e2 e2d2 {f}e2d2 c2d2 e2f2 g2a2  | \
w:  Ah  Dûr_ *  et *  *  *  me  *  *  *  *  ya  | 
f2e4d2 d4 e2d2 {e}d2c2 c2d2 c2=B2 c2BA A4 z4  | 
w:  *  *  *  nın dan  *  *  *  *  as *  *  *  la   | 
G2A6 G4 A6c2 =B2A2 G4 G2A2 B2c2 d4  | \
w:  ah  *  ben *  de ni  *  ey   | 
z8 A4 B8 A2G2 {A}G2A2 A8 z4  | 
w:  ka şı  ke *  *  *  *  man    | 
z24  | e3dc3Bc3=B BA{c}BAA4z4  | G4d4d4 d4e4{g}f2e2  | \
w:  |  vay    |  Ah  Mest_ i  nâ  | 
e2d2{e}d2c2c2B2 A2G2d2c4B2  | 
w:  zım  *  *  a  *  *  *  ca *  nım   | 
A4A8 B4c3_ed2c2  | B8G4 A2{c}BAA4z4  | \
w:  *  ça re sâ  |  zım  *  câ *  *  *  nım    | 
z4^f8 ^e4{g}f8  | ^e4^f8 a4a2g2f2e2  | 
w:  İş ve *  bâ  |  zım  *  a  câ *  nım   | 
^f4d4^e4 f2e2f8  | g6^f2a2g2 f2^e2f4z4  | \
w:  *  dil *  ne *  vâ  |  zım  *  a  *  câ *  nım    | 
g6^f2f2e2 e2d2d2c2c2B2  | 
w:  Gel   | 
d6c2c2=B2 B3AA4z4  | A4A6G2 G2^F2B4A2G2  | \
w:  gel   |  ha lim  *  ya *  man   | 
^F16z8  | d16-d4d3c  | 
w:  gel   |  gel   | 
d4e8 e2d2d2c2c2=B2  | c4d4c4 =B4A4z4  | \
w:  gel   |  gel   | 
G4A4=B4 c4{e}d4z4  | A4B4B2A2 G4A2c2B2A2  | 
w:  yâr   |  ka şı  *  *  ke man   | 
A16z8  | z40  | a8 d4 a6g2 f2e2 d2^c2 d2e2 f2g2 a2{b}ag  | \
w:  gel    |  |  Ah  n'it sem  *  yi *  *  *  ne   | 
a8 a4 b6a2 a2g2 {a}g2f2 b4 a2g2 f2e2  | 
w:  *  vus la *  tı *  *  *  *  na   | 
f8 e2f2 g2b2 a2g2 f2e2 d2^c2 d2e2 f4 z4  | \
w:  *  er *  mez  *  *  *  des *  *  *  tim   | 
c6B2 A4 B8 A2G2 {A}G2A2 A8 z4  | 
w:  ah  *  ey  sîm_ ü  *  *  *  *  ten    | 
z24  | e3dc3Bc3=B BA{c}BAA4z4  | G4d4d4 d4e4{g}f2e2  | \
w:  |  vay    |  Ah  Mest_ i  nâ  | 
e2d2{e}d2c2c2B2 A2G2d2c4B2  | 
w:  zım  *  *  a  *  *  *  ca *  nım   | 
A4A8 B4c3_ed2c2  | B8G4 A2{c}BAA4z4  | \
w:  *  ça re sâ  |  zım  *  câ *  *  *  nım    | 
z4^f8 ^e4{g}f8  | ^e4^f8 a4a2g2f2e2  | 
w:  İş ve *  bâ  |  zım  *  a  câ *  nım   | 
^f4d4^e4 f2e2f8  | g6^f2a2g2 f2^e2f4z4  | \
w:  *  dil *  ne *  vâ  |  zım  *  a  *  câ *  nım    | 
g6^f2f2e2 e2d2d2c2c2B2  | 
w:  Gel   | 
d6c2c2=B2 B3AA4z4  | A4A6G2 G2^F2B4A2G2  | \
w:  gel   |  ha lim  *  ya *  man   | 
^F16z8  | d16-d4d3c  | 
w:  gel   |  gel   | 
d4e8 e2d2d2c2c2=B2  | c4d4c4 =B4A4z4  | \
w:  gel   |  gel   | 
G4A4=B4 c4{e}d4z4  | A4B4B2A2 G4A2c2B2A2  | 
w:  yâr   |  ka şı  *  *  ke man   | 
A16z8  | z40  | f8 a2g2 g2f2 f2e2 e2d2 {f}e2d2 c2d2 e2f2 g2a2  | \
w:  gel    |  |  Ah  Dü *  şer  *  *  *  mi  *  *  *  *  sa  | 
f2e4d2 d4 e2d2 {e}d2c2 c2d2 c2=B2 c2BA A4 z4  | 
w:  *  *  *  na  böy *  *  *  *  le  *  *  *  âh   | 
G2A6 G4 A6c2 =B2A2 G4 G2A2 B2c2 d4  | \
w:  et *  tir *  mek  serv_ *  ü   | 
z8 A4 B8 A2G2 {A}G2A2 A8 z4  | 
w:  *  *  ze *  *  *  *  man    | 
z24  | e3dc3Bc3=B BA{c}BAA4z4  | G4d4d4 d4e4{g}f2e2  | \
w:  |  vay    |  Ah  Mest_ i  nâ  | 
e2d2{e}d2c2c2B2 A2G2d2c4B2  | 
w:  zım  *  *  a  *  *  *  ca *  nım   | 
A4A8 B4c3_ed2c2  | B8G4 A2{c}BAA4z4  | \
w:  *  ça re sâ  |  zım  *  câ *  *  *  nım    | 
z4^f8 ^e4{g}f8  | ^e4^f8 a4a2g2f2e2  | 
w:  İş ve *  bâ  |  zım  *  a  câ *  nım   | 
^f4d4^e4 f2e2f8  | g6^f2a2g2 f2^e2f4z4  | \
w:  *  dil *  ne *  vâ  |  zım  *  a  *  câ *  nım    | 
g6^f2f2e2 e2d2d2c2c2B2  | 
w:  Gel   | 
d6c2c2=B2 B3AA4z4  | A4A6G2 G2^F2B4A2G2  | \
w:  gel   |  ha lim  *  ya *  man   | 
^F16z8  | d16-d4d3c  | 
w:  gel   |  gel   | 
d4e8 e2d2d2c2c2=B2  | c4d4c4 =B4A4z4  | \
w:  gel   |  gel   | 
G4A4=B4 c4{e}d4z4  | A4B4B2A2 G4A2c2B2A2  | 
w:  yâr   |  ka şı  *  *  ke man   | 
A16z8  | |


